X: 1
T: Grasshopper Sittin' on a Sweet Potato Vine
M: C|
L: 1/8
R: reel
K: D
FG | "D"ABAG FAde | fefe d3A |\
[1,3 "G"BdBA GABc | dedB "D"A2FG :|\
[2,4 "G"BccA "A"BAcA | "D"d3c d2 :|
|: cd |\
     "A"edcd e2fg | "D"aefe d3A |\
[1,3 "G"BdBA GABc | dedB "D"A2cd :|\
[2,4 "G"BccA "A"BAcA |1 "D"d3c d2 :|]
